Sources/FrostedUI/Resources/Icons.xcassets/calendarPlusSize12.imageset/calendar-plus-size-12.svg

<svg
  width="12"
  height="12"
  viewBox="0 0 12 12"
  fill="none"
  xmlns="http://www.w3.org/2000/svg"
  data-fui-icon="true"
>
  <path
    d="M3.875 2.375H2.875C2.32271 2.375 1.875 2.82271 1.875 3.375V4.625M3.875 2.375H8.125M3.875 2.375V1.375M1.875 4.625V9.125C1.875 9.6773 2.32271 10.125 2.875 10.125H5.625M1.875 4.625H10.125M8.125 2.375H9.125C9.6773 2.375 10.125 2.82271 10.125 3.375V4.625M8.125 2.375V1.375M10.125 4.625V5.625M8.875 7.375V9M8.875 9V10.625M8.875 9H7.25M8.875 9H10.5"
    stroke="currentColor"
    stroke-width="1.5"
    stroke-linecap="round"
    stroke-linejoin="round"
  />
</svg>

<svg xmlns="http://www.w3.org/2000/svg" width="12" height="12" fill="none" data-fui-icon="true" viewBox="0 0 12 12"><path stroke="currentColor" stroke-linecap="round" stroke-linejoin="round" stroke-width="1.5" d="M3.875 2.375h-1a1 1 0 0 0-1 1v1.25m2-2.25h4.25m-4.25 0v-1m-2 3.25v4.5a1 1 0 0 0 1 1h2.75m-3.75-5.5h8.25m-2-2.25h1a1 1 0 0 1 1 1v1.25m-2-2.25v-1m2 3.25v1m-1.25 1.75V9m0 0v1.625m0-1.625H7.25m1.625 0H10.5"/></svg>
